app/assets/images/Contenido/Odin/Bien.svg

<svg fill="none" height="137" viewBox="0 0 137 137" width="137" xmlns="http://www.w3.org/2000/svg" xmlns:xlink="http://www.w3.org/1999/xlink"><mask id="a" height="137" maskUnits="userSpaceOnUse" width="137" x="0" y="0"><path d="m68.5 135c8.7346.011 17.3852-1.704 25.4549-5.046 8.0701-3.343 15.3991-8.247 21.5671-14.432 6.185-6.168 11.089-13.497 14.432-21.5671 3.342-8.0697 5.057-16.7203 5.046-25.4549.011-8.7345-1.704-17.3851-5.047-25.4548-3.342-8.0696-8.247-15.3991-14.431-21.5673-6.168-6.1844-13.497-11.0889-21.5671-14.43154-8.0697-3.34267-16.7203-5.05762-25.4549-5.0463-8.7345-.01114-17.3851 1.7039-25.4548 5.04655-8.0696 3.34269-15.3991 8.24699-21.5673 14.43129-6.1843 6.1682-11.0886 13.4977-14.43129 21.5673-3.34265 8.0697-5.05769 16.7203-5.04655 25.4548-.01132 8.7346 1.70363 17.3852 5.0463 25.4549 3.34264 8.0701 8.24714 15.3991 14.43154 21.5671 6.1682 6.184 13.4977 11.089 21.5673 14.431 8.0697 3.343 16.7203 5.058 25.4548 5.047z" fill="#fff" stroke="#fff" stroke-linejoin="round" stroke-width="3.38854"/><path d="m41.8994 68.4999 19.95 19.95 39.8996-39.9" fill="none" stroke="#000" stroke-linecap="round" stroke-linejoin="round" stroke-width="3.38854"/><path d="m42.2393 68.5 19.484 19.4841 39.8157-39.8153" fill="none" stroke="#000" stroke-linecap="round" stroke-linejoin="round" stroke-width="8.47134"/></mask><g mask="url(#a)"><path d="m-11.5537-11.5542h159.5997v159.6002h-159.5997z" fill="#00df74"/></g></svg>

<svg width="137" height="137" viewBox="0 0 137 137" fill="none" xmlns="http://www.w3.org/2000/svg">
<mask id="mask0_11_6913" style="mask-type:luminance" maskUnits="userSpaceOnUse" x="0" y="0" width="137" height="137">
<path d="M68.5 135C77.2346 135.011 85.8852 133.296 93.9549 129.954C102.025 126.611 109.354 121.707 115.522 115.522C121.707 109.354 126.611 102.025 129.954 93.9549C133.296 85.8852 135.011 77.2346 135 68.5C135.011 59.7655 133.296 51.1149 129.953 43.0452C126.611 34.9756 121.706 27.6461 115.522 21.4779C109.354 15.2935 102.025 10.389 93.9549 7.04636C85.8852 3.70369 77.2346 1.98874 68.5 2.00006C59.7655 1.98892 51.1149 3.70396 43.0452 7.04661C34.9756 10.3893 27.6461 15.2936 21.4779 21.4779C15.2936 27.6461 10.3893 34.9756 7.04661 43.0452C3.70396 51.1149 1.98892 59.7655 2.00006 68.5C1.98874 77.2346 3.70369 85.8852 7.04636 93.9549C10.389 102.025 15.2935 109.354 21.4779 115.522C27.6461 121.706 34.9756 126.611 43.0452 129.953C51.1149 133.296 59.7655 135.011 68.5 135Z" fill="white" stroke="white" stroke-width="3.38854" stroke-linejoin="round"/>
<path d="M41.8994 68.4999L61.8494 88.4499L101.749 48.5499" stroke="black" stroke-width="3.38854" stroke-linecap="round" stroke-linejoin="round"/>
<path d="M42.2393 68.5L61.7233 87.9841L101.539 48.1688" stroke="black" stroke-width="8.47134" stroke-linecap="round" stroke-linejoin="round"/>
</mask>
<g mask="url(#mask0_11_6913)">
<path d="M-11.5537 -11.5542H148.046V148.046H-11.5537V-11.5542Z" fill="#00DF74"/>
</g>
</svg>
